resources/haticons/SVG/instagram1.svg

<!-- Generated by IcoMoon.io -->
<svg version="1.1" xmlns="http://www.w3.org/2000/svg" width="24" height="24" viewBox="0 0 24 24">
<title>instagram1</title>
<path d="M17.025 24h-10.050c-3.825 0-6.975-3.15-6.975-6.975v-10.050c0-3.825 3.15-6.975 6.975-6.975h9.975c3.9 0 7.050 3.15 7.050 6.975v9.975c0 3.9-3.15 7.050-6.975 7.050zM21.75 6.75c0-2.475-2.025-4.5-4.5-4.5h-10.5c-2.475 0-4.5 2.025-4.5 4.5v10.5c0 2.475 2.025 4.5 4.5 4.5h10.5c2.475 0 4.5-2.025 4.5-4.5v-10.5zM18.525 6.975c-0.825 0-1.5-0.675-1.5-1.5s0.675-1.5 1.5-1.5 1.5 0.675 1.5 1.5-0.675 1.5-1.5 1.5zM12 18.225c-3.45 0-6.225-2.775-6.225-6.225s2.775-6.225 6.225-6.225 6.225 2.775 6.225 6.225-2.775 6.225-6.225 6.225zM12 8.025c-2.175 0-3.975 1.8-3.975 3.975s1.8 3.975 3.975 3.975 3.975-1.8 3.975-3.975-1.8-3.975-3.975-3.975z"></path>
</svg>

<svg xmlns="http://www.w3.org/2000/svg" width="24" height="24"><path d="M17.025 24H6.975C3.15 24 0 20.85 0 17.025V6.975C0 3.15 3.15 0 6.975 0h9.975C20.85 0 24 3.15 24 6.975v9.975c0 3.9-3.15 7.05-6.975 7.05zM21.75 6.75c0-2.475-2.025-4.5-4.5-4.5H6.75a4.513 4.513 0 0 0-4.5 4.5v10.5c0 2.475 2.025 4.5 4.5 4.5h10.5c2.475 0 4.5-2.025 4.5-4.5V6.75zm-3.225.225c-.825 0-1.5-.675-1.5-1.5s.675-1.5 1.5-1.5 1.5.675 1.5 1.5-.675 1.5-1.5 1.5zM12 18.225c-3.45 0-6.225-2.775-6.225-6.225S8.55 5.775 12 5.775 18.225 8.55 18.225 12 15.45 18.225 12 18.225zm0-10.2c-2.175 0-3.975 1.8-3.975 3.975s1.8 3.975 3.975 3.975 3.975-1.8 3.975-3.975-1.8-3.975-3.975-3.975z"/></svg>
